images/court.svg

<svg width="65" height="64" viewBox="0 0 65 64" fill="none" xmlns="http://www.w3.org/2000/svg">
<path d="M41.0187 20.389C41.7507 21.121 42.9367 21.123 43.6687 20.389L46.2767 17.781C47.0077 17.049 47.0057 15.863 46.2767 15.13L39.6937 8.549C38.9637 7.817 37.7777 7.817 37.0457 8.549L34.4367 11.157C33.7067 11.889 33.7067 13.075 34.4367 13.805L41.0187 20.389Z" fill="url(#paint0_linear_22728_11407)"/>
<path d="M25.4328 36.2652C26.1638 36.9942 27.3498 36.9942 28.0808 36.2652L30.6898 33.6553C31.4218 32.9253 31.4218 31.7383 30.6898 31.0063L24.1068 24.4233C23.3758 23.6933 22.1898 23.6913 21.4578 24.4233L18.8498 27.0312C18.1178 27.7632 18.1198 28.9492 18.8498 29.6812L25.4328 36.2652Z" fill="url(#paint1_linear_22728_11407)"/>
<path d="M55.3149 36.8912L52.6679 34.2412C51.9339 33.5112 50.7509 33.5112 50.0199 34.2412L48.8589 35.4012L37.6539 24.1942L40.0809 21.7662L33.3479 15.0352L30.9199 17.4632L27.8279 20.5532L25.4539 22.9272L32.1859 29.6602L34.5629 27.2872L45.7659 38.4922L44.7179 39.5412C43.9859 40.2702 43.9839 41.4572 44.7179 42.1892L47.3649 44.8372C48.0989 45.5712 49.2839 45.5712 50.0149 44.8372L55.3139 39.5402C56.0469 38.8072 56.0469 37.6232 55.3149 36.8912Z" fill="url(#paint2_linear_22728_11407)"/>
<path d="M35.7437 44.9425C35.7437 43.7435 34.7717 42.7695 33.5707 42.7695H16.6027C15.4027 42.7695 14.4297 43.7435 14.4297 44.9425V48.4695H9.66675V55.8585H40.2247V48.4695H35.7437V44.9425Z" fill="url(#paint3_linear_22728_11407)"/>
<defs>
<linearGradient id="paint0_linear_22728_11407" x1="40.3567" y1="8" x2="40.3567" y2="20.9388" gradientUnits="userSpaceOnUse">
<stop stop-color="#EF8080"/>
<stop offset="1" stop-color="#F0145A"/>
</linearGradient>
<linearGradient id="paint1_linear_22728_11407" x1="24.7701" y1="23.875" x2="24.7701" y2="36.812" gradientUnits="userSpaceOnUse">
<stop stop-color="#EF8080"/>
<stop offset="1" stop-color="#F0145A"/>
</linearGradient>
<linearGradient id="paint2_linear_22728_11407" x1="40.6588" y1="15.0352" x2="40.6588" y2="45.3877" gradientUnits="userSpaceOnUse">
<stop stop-color="#EF8080"/>
<stop offset="1" stop-color="#F0145A"/>
</linearGradient>
<linearGradient id="paint3_linear_22728_11407" x1="24.9457" y1="42.7695" x2="24.9457" y2="55.8585" gradientUnits="userSpaceOnUse">
<stop stop-color="#EF8080"/>
<stop offset="1" stop-color="#F0145A"/>
</linearGradient>
</defs>
</svg>

<svg xmlns="http://www.w3.org/2000/svg" width="65" height="64" fill="none"><path fill="url(#a)" d="M41.019 20.389a1.872 1.872 0 0 0 2.65 0l2.608-2.608a1.878 1.878 0 0 0 0-2.651l-6.583-6.581a1.871 1.871 0 0 0-2.648 0l-2.61 2.608a1.875 1.875 0 0 0 0 2.648l6.583 6.584Z"/><path fill="url(#b)" d="M25.433 36.265a1.876 1.876 0 0 0 2.648 0l2.609-2.61a1.872 1.872 0 0 0 0-2.649l-6.583-6.583a1.874 1.874 0 0 0-2.65 0l-2.607 2.608a1.875 1.875 0 0 0 0 2.65l6.583 6.584Z"/><path fill="url(#c)" d="m55.315 36.891-2.647-2.65a1.875 1.875 0 0 0-2.648 0l-1.161 1.16-11.205-11.207 2.427-2.428-6.733-6.73-2.428 2.427-3.092 3.09-2.374 2.374 6.732 6.733 2.377-2.373 11.203 11.205-1.048 1.05a1.87 1.87 0 0 0 0 2.647l2.647 2.648a1.87 1.87 0 0 0 2.65 0l5.299-5.297a1.871 1.871 0 0 0 0-2.649Z"/><path fill="url(#d)" d="M35.744 44.943a2.173 2.173 0 0 0-2.173-2.173H16.603c-1.2 0-2.173.973-2.173 2.172v3.527H9.667v7.39h30.558v-7.39h-4.481v-3.526Z"/><defs><linearGradient id="a" x1="40.357" x2="40.357" y1="8" y2="20.939" gradientUnits="userSpaceOnUse"><stop stop-color="#EF8080"/><stop offset="1" stop-color="#F0145A"/></linearGradient><linearGradient id="b" x1="24.77" x2="24.77" y1="23.875" y2="36.812" gradientUnits="userSpaceOnUse"><stop stop-color="#EF8080"/><stop offset="1" stop-color="#F0145A"/></linearGradient><linearGradient id="c" x1="40.659" x2="40.659" y1="15.035" y2="45.388" gradientUnits="userSpaceOnUse"><stop stop-color="#EF8080"/><stop offset="1" stop-color="#F0145A"/></linearGradient><linearGradient id="d" x1="24.946" x2="24.946" y1="42.77" y2="55.858" gradientUnits="userSpaceOnUse"><stop stop-color="#EF8080"/><stop offset="1" stop-color="#F0145A"/></linearGradient></defs></svg>
